packages/ffe-icons/icons/filled/sm/keyboard_command_key.svg

<svg xmlns="http://www.w3.org/2000/svg" height="20" viewBox="0 -960 960 960" width="20"><path d="M275.778-154.001q-50.932 0-86.354-35.645-35.423-35.645-35.423-86.576 0-50.932 35.58-86.354 35.58-35.423 86.419-35.423h70.001v-164.002H276q-51.154 0-86.576-35.645-35.423-35.645-35.423-86.576 0-50.932 35.645-86.354 35.645-35.423 86.576-35.423 50.932 0 86.354 35.58 35.423 35.58 35.423 86.419v70.001h164.002V-684q0-51.154 35.645-86.576 35.645-35.423 86.576-35.423 50.932 0 86.354 35.645 35.423 35.645 35.423 86.576 0 50.932-35.58 86.354-35.58 35.423-86.419 35.423h-70.001v164.002H684q51.154 0 86.576 35.645 35.423 35.645 35.423 86.576 0 50.932-35.645 86.354-35.645 35.423-86.576 35.423-50.932 0-86.354-35.58-35.423-35.58-35.423-86.419v-70.001H397.999V-276q0 51.154-35.645 86.576-35.645 35.423-86.576 35.423Zm.222-51.998q28.846 0 49.424-20.577 20.577-20.578 20.577-49.424v-70.001H276q-28.846 0-49.424 20.577-20.577 20.578-20.577 49.424t20.577 49.424q20.578 20.577 49.424 20.577Zm408 0q28.846 0 49.424-20.577 20.577-20.578 20.577-49.424t-20.577-49.424Q712.846-346.001 684-346.001h-70.001V-276q0 28.846 20.577 49.424 20.578 20.577 49.424 20.577Zm-286.001-192h164.002v-164.002H397.999v164.002ZM276-613.999h70.001V-684q0-28.846-20.577-49.424-20.578-20.577-49.424-20.577t-49.424 20.577Q205.999-712.846 205.999-684t20.577 49.424q20.578 20.577 49.424 20.577Zm337.999 0H684q28.846 0 49.424-20.577 20.577-20.578 20.577-49.424t-20.577-49.424Q712.846-754.001 684-754.001t-49.424 20.577Q613.999-712.846 613.999-684v70.001Z"/></svg>

<svg xmlns="http://www.w3.org/2000/svg" height="20" viewBox="0 -960 960 960" width="20"><path d="M275.78-154q-50.93 0-86.36-35.65Q154-225.29 154-276.22q0-50.93 35.58-86.36Q225.16-398 276-398h70v-164h-70q-51.15 0-86.58-35.65Q154-633.29 154-684.22q0-50.93 35.65-86.36Q225.29-806 276.22-806q50.93 0 86.36 35.58Q398-734.84 398-684v70h164v-70q0-51.15 35.65-86.58Q633.29-806 684.22-806q50.93 0 86.36 35.65Q806-734.71 806-683.78q0 50.93-35.58 86.36Q734.84-562 684-562h-70v164h70q51.15 0 86.58 35.65Q806-326.71 806-275.78q0 50.93-35.65 86.36Q734.71-154 683.78-154q-50.93 0-86.36-35.58Q562-225.16 562-276v-70H398v70q0 51.15-35.65 86.58Q326.71-154 275.78-154Zm.22-52q28.85 0 49.42-20.58Q346-247.15 346-276v-70h-70q-28.85 0-49.42 20.58Q206-304.85 206-276t20.58 49.42Q247.15-206 276-206Zm408 0q28.85 0 49.42-20.58Q754-247.15 754-276t-20.58-49.42Q712.85-346 684-346h-70v70q0 28.85 20.58 49.42Q655.15-206 684-206ZM398-398h164v-164H398v164ZM276-614h70v-70q0-28.85-20.58-49.42Q304.85-754 276-754t-49.42 20.58Q206-712.85 206-684t20.58 49.42Q247.15-614 276-614Zm338 0h70q28.85 0 49.42-20.58Q754-655.15 754-684t-20.58-49.42Q712.85-754 684-754t-49.42 20.58Q614-712.85 614-684v70Z"/></svg>
